docs/assets/img/logo/EDgrid-logo.svg

<svg viewBox="0 0 92 32" fill="none" xmlns="http://www.w3.org/2000/svg">
<path d="M37.3689 22V10.142H45.3769V12.3836H40.0382V14.7107H44.778V16.9009H40.0382V19.7584H45.7704V22H37.3689ZM50.4152 19.8269C50.5407 19.8383 50.6832 19.8497 50.843 19.8611C51.0141 19.8611 51.2137 19.8611 51.4418 19.8611C52.7765 19.8611 53.7632 19.5246 54.4021 18.8516C55.0523 18.1785 55.3774 17.2488 55.3774 16.0624C55.3774 14.819 55.0694 13.8779 54.4534 13.2391C53.8374 12.6003 52.8621 12.2809 51.5274 12.2809C51.3449 12.2809 51.1567 12.2866 50.9627 12.298C50.7688 12.298 50.5863 12.3094 50.4152 12.3322V19.8269ZM58.1323 16.0624C58.1323 17.0891 57.9726 17.9846 57.6532 18.7489C57.3338 19.5132 56.8775 20.1463 56.2843 20.6482C55.7025 21.1501 54.9895 21.5266 54.1454 21.7776C53.3012 22.0285 52.3544 22.154 51.305 22.154C50.8258 22.154 50.2669 22.1312 49.6281 22.0856C48.9892 22.0513 48.3618 21.9715 47.7458 21.846V10.296C48.3618 10.1819 49.0007 10.1078 49.6623 10.0736C50.3353 10.0279 50.9114 10.0051 51.3905 10.0051C52.4058 10.0051 53.3241 10.1192 54.1454 10.3473C54.9781 10.5755 55.6911 10.9348 56.2843 11.4253C56.8775 11.9159 57.3338 12.5433 57.6532 13.3076C57.9726 14.0719 58.1323 14.9901 58.1323 16.0624ZM62.3639 17.2089C62.3639 18.6348 62.94 19.3478 64.0922 19.3478C64.3545 19.3478 64.5998 19.3136 64.8279 19.2451C65.0561 19.1767 65.25 19.0968 65.4097 19.0056V14.9331C65.2842 14.9103 65.1359 14.8932 64.9648 14.8818C64.7937 14.859 64.5941 14.8476 64.3659 14.8476C63.6929 14.8476 63.191 15.07 62.8602 15.5149C62.5293 15.9598 62.3639 16.5244 62.3639 17.2089ZM67.9593 20.8707C67.9593 22.3422 67.5828 23.4316 66.8299 24.1389C66.0885 24.8576 64.9363 25.2169 63.3735 25.2169C62.8259 25.2169 62.2784 25.1656 61.7308 25.0629C61.1833 24.9716 60.6756 24.8461 60.2079 24.6864L60.6528 22.5476C61.0521 22.7073 61.4685 22.8327 61.9019 22.924C62.3468 23.0153 62.8488 23.0609 63.4077 23.0609C64.1378 23.0609 64.6511 22.9012 64.9477 22.5818C65.2557 22.2624 65.4097 21.8517 65.4097 21.3498V21.0247C65.1359 21.1501 64.8508 21.2471 64.5542 21.3156C64.269 21.3726 63.9553 21.4011 63.6131 21.4011C62.3696 21.4011 61.4171 21.0361 60.7555 20.306C60.0939 19.5645 59.7631 18.5321 59.7631 17.2089C59.7631 16.5473 59.8657 15.9484 60.0711 15.4122C60.2764 14.8647 60.573 14.397 60.9608 14.0091C61.3601 13.6213 61.8449 13.3247 62.4153 13.1193C62.9856 12.9026 63.6302 12.7942 64.3488 12.7942C64.6568 12.7942 64.9705 12.8113 65.2899 12.8456C65.6208 12.8684 65.9459 12.9026 66.2653 12.9482C66.5847 12.9939 66.887 13.0509 67.1722 13.1193C67.4688 13.1764 67.7311 13.2391 67.9593 13.3076V20.8707ZM75.7748 15.2582C75.5466 15.2012 75.2785 15.1441 74.9705 15.0871C74.6625 15.0187 74.3317 14.9844 73.9781 14.9844C73.8184 14.9844 73.6245 15.0016 73.3963 15.0358C73.1796 15.0586 73.0142 15.0871 72.9001 15.1213V22H70.3505V13.4787C70.8068 13.319 71.343 13.1707 71.959 13.0338C72.5864 12.8855 73.2823 12.8113 74.0465 12.8113C74.1834 12.8113 74.3488 12.8227 74.5428 12.8456C74.7367 12.857 74.9306 12.8798 75.1245 12.914C75.3185 12.9368 75.5124 12.971 75.7063 13.0167C75.9003 13.0509 76.0657 13.0965 76.2025 13.1536L75.7748 15.2582ZM80.1189 22H77.5693V12.9996H80.1189V22ZM80.3584 10.3987C80.3584 10.8664 80.2044 11.2371 79.8964 11.5109C79.5998 11.7733 79.2462 11.9044 78.8355 11.9044C78.4249 11.9044 78.0655 11.7733 77.7575 11.5109C77.4609 11.2371 77.3126 10.8664 77.3126 10.3987C77.3126 9.93096 77.4609 9.56593 77.7575 9.30356C78.0655 9.02978 78.4249 8.89289 78.8355 8.89289C79.2462 8.89289 79.5998 9.02978 79.8964 9.30356C80.2044 9.56593 80.3584 9.93096 80.3584 10.3987ZM84.6886 17.4313C84.6886 18.2184 84.8654 18.8516 85.219 19.3307C85.5727 19.8098 86.0974 20.0493 86.7933 20.0493C87.0214 20.0493 87.2324 20.0436 87.4264 20.0322C87.6203 20.0094 87.78 19.9866 87.9055 19.9638V15.3267C87.7458 15.224 87.5347 15.1384 87.2724 15.07C87.0214 15.0016 86.7647 14.9673 86.5024 14.9673C85.2932 14.9673 84.6886 15.7887 84.6886 17.4313ZM90.455 21.7091C90.2269 21.7776 89.9645 21.846 89.6679 21.9144C89.3713 21.9715 89.0576 22.0228 88.7268 22.0684C88.4074 22.1141 88.0766 22.1483 87.7344 22.1711C87.4036 22.2053 87.0841 22.2224 86.7761 22.2224C86.0347 22.2224 85.373 22.1141 84.7913 21.8973C84.2095 21.6806 83.719 21.3726 83.3197 20.9733C82.9204 20.5627 82.6124 20.0721 82.3957 19.5018C82.1904 18.92 82.0877 18.2698 82.0877 17.5511C82.0877 16.821 82.179 16.1651 82.3615 15.5833C82.544 14.9901 82.8064 14.4882 83.1486 14.0776C83.4908 13.6669 83.9072 13.3532 84.3977 13.1364C84.8996 12.9197 85.47 12.8113 86.1088 12.8113C86.4624 12.8113 86.7761 12.8456 87.0499 12.914C87.3351 12.9824 87.6203 13.0794 87.9055 13.2049V9.13245L90.455 8.72178V21.7091Z" fill="#2A3B47"/>
<g clip-path="url(#clip0)">
<path fill-rule="evenodd" clip-rule="evenodd" d="M1.6 0C1.17565 0 0.768687 0.168571 0.468629 0.468629C0.168571 0.768687 0 1.17565 0 1.6L0 9.6H20.8V0H1.6Z" fill="#1292EE"/>
<path fill-rule="evenodd" clip-rule="evenodd" d="M30.4 0H22.4V20.8H32V1.6C32 1.17565 31.8314 0.768687 31.5314 0.468629C31.2313 0.168571 30.8243 0 30.4 0V0Z" fill="#EB5757"/>
<path fill-rule="evenodd" clip-rule="evenodd" d="M0 11.2V30.4C0 30.8243 0.168571 31.2313 0.468629 31.5314C0.768687 31.8314 1.17565 32 1.6 32H9.6V11.2H0Z" fill="#59B3F3"/>
<path fill-rule="evenodd" clip-rule="evenodd" d="M11.2 22.4V32H30.4C30.8244 32 31.2313 31.8314 31.5314 31.5314C31.8314 31.2313 32 30.8243 32 30.4V22.4H11.2Z" fill="#FFB940"/>
</g>
<defs>
<clipPath id="clip0">
<rect width="32" height="32" fill="white"/>
</clipPath>
</defs>
</svg>

<svg width="92" height="32" fill="none" xmlns="http://www.w3.org/2000/svg"><path d="M37.369 22V10.142h8.008v2.242h-5.339v2.327h4.74v2.19h-4.74v2.857h5.732V22h-8.4zm13.046-2.173c.126.011.268.023.428.034h.599c1.334 0 2.321-.336 2.96-1.01.65-.672.975-1.602.975-2.789 0-1.243-.308-2.184-.924-2.823-.616-.639-1.59-.958-2.926-.958-.182 0-.37.006-.564.017a4.15 4.15 0 0 0-.548.034v7.495zm7.717-3.765c0 1.027-.16 1.923-.479 2.687a4.934 4.934 0 0 1-1.369 1.9c-.581.501-1.294.878-2.139 1.129-.844.25-1.79.376-2.84.376-.48 0-1.038-.023-1.677-.068a12.872 12.872 0 0 1-1.882-.24v-11.55a14.676 14.676 0 0 1 1.916-.222 26.07 26.07 0 0 1 1.729-.069c1.015 0 1.933.114 2.754.342.833.229 1.546.588 2.14 1.078a4.792 4.792 0 0 1 1.368 1.883c.32.764.48 1.682.48 2.754zm4.232 1.147c0 1.426.576 2.139 1.728 2.139a2.744 2.744 0 0 0 1.318-.343v-4.072a4.021 4.021 0 0 0-.445-.051 4.593 4.593 0 0 0-.6-.034c-.672 0-1.174.222-1.505.667-.33.445-.496 1.01-.496 1.694zm5.595 3.662c0 1.471-.376 2.56-1.13 3.268-.74.719-1.893 1.078-3.455 1.078a8.893 8.893 0 0 1-1.643-.154 9.596 9.596 0 0 1-1.523-.377l.445-2.138c.4.16.816.285 1.249.376a7.55 7.55 0 0 0 1.506.137c.73 0 1.243-.16 1.54-.48.308-.319.462-.73.462-1.231v-.325a4.458 4.458 0 0 1-.856.29 4.81 4.81 0 0 1-.94.086c-1.244 0-2.197-.365-2.858-1.095-.662-.742-.993-1.774-.993-3.097a5 5 0 0 1 .308-1.797 3.884 3.884 0 0 1 .89-1.403c.4-.388.884-.684 1.454-.89.57-.216 1.215-.325 1.934-.325.308 0 .621.017.94.052.332.022.657.057.976.102.32.046.622.103.907.171.297.057.56.12.787.189v7.563zm7.816-5.613a13.509 13.509 0 0 0-.805-.17 4.572 4.572 0 0 0-.992-.104c-.16 0-.353.018-.582.052a2.89 2.89 0 0 0-.496.085V22h-2.55v-8.521c.457-.16.993-.308 1.609-.445a9.084 9.084 0 0 1 2.087-.223c.137 0 .303.012.497.035.194.011.388.034.581.068.195.023.388.057.582.103.194.034.36.08.496.137l-.427 2.104zM80.119 22h-2.55v-9h2.55v9zm.24-11.601c0 .467-.155.838-.463 1.112-.296.262-.65.393-1.06.393-.411 0-.77-.13-1.079-.393-.296-.274-.444-.645-.444-1.112 0-.468.148-.833.444-1.095a1.572 1.572 0 0 1 1.078-.411c.411 0 .765.137 1.061.41.308.263.462.628.462 1.096zm4.33 7.032c0 .787.176 1.42.53 1.9.354.479.878.718 1.574.718.228 0 .44-.005.633-.017.194-.023.354-.045.48-.068v-4.637a2.207 2.207 0 0 0-.634-.257 2.916 2.916 0 0 0-.77-.103c-1.209 0-1.813.822-1.813 2.464zm5.766 4.278c-.228.069-.49.137-.787.205-.297.057-.61.109-.941.154-.32.046-.65.08-.993.103-.33.034-.65.051-.958.051-.741 0-1.403-.108-1.985-.325a4.044 4.044 0 0 1-1.471-.924c-.4-.41-.708-.9-.924-1.471-.206-.582-.308-1.232-.308-1.95 0-.731.091-1.387.274-1.969.182-.593.444-1.095.787-1.505a3.381 3.381 0 0 1 1.249-.942c.502-.216 1.072-.325 1.71-.325a3.9 3.9 0 0 1 .942.103c.285.068.57.165.856.29V9.133l2.549-.41V21.71z" fill="#2A3B47"/><g clip-path="url(#clip0)" fill-rule="evenodd" clip-rule="evenodd"><path d="M1.6 0A1.6 1.6 0 0 0 0 1.6v8h20.8V0H1.6z" fill="#1292EE"/><path d="M30.4 0h-8v20.8H32V1.6A1.6 1.6 0 0 0 30.4 0z" fill="#EB5757"/><path d="M0 11.2v19.2A1.6 1.6 0 0 0 1.6 32h8V11.2H0z" fill="#59B3F3"/><path d="M11.2 22.4V32h19.2a1.6 1.6 0 0 0 1.6-1.6v-8H11.2z" fill="#FFB940"/></g><defs><clipPath id="clip0"><path fill="#fff" d="M0 0h32v32H0z"/></clipPath></defs></svg>
